polaris-icons/icons/new-icons/CodeMajor.svg

<svg width="20" height="20" viewBox="0 0 20 20" fill="none" xmlns="http://www.w3.org/2000/svg">
<path d="M12.2212 4.95623C12.3349 4.55796 12.1043 4.14284 11.7061 4.02905C11.3078 3.91526 10.8927 4.14588 10.7789 4.54415L7.77887 15.0442C7.66507 15.4424 7.89569 15.8575 8.29397 15.9713C8.69225 16.0851 9.10736 15.8545 9.22115 15.4562L12.2212 4.95623Z" fill="#4A4A4A"/>
<path d="M7.03033 6.21991C7.32322 6.51281 7.32322 6.98768 7.03033 7.28057L4.31066 10.0002L7.03033 12.7199C7.32322 13.0128 7.32322 13.4877 7.03033 13.7806C6.73744 14.0735 6.26256 14.0735 5.96967 13.7806L2.71967 10.5306C2.42678 10.2377 2.42678 9.76281 2.71967 9.46991L5.96967 6.21991C6.26256 5.92702 6.73744 5.92702 7.03033 6.21991Z" fill="#4A4A4A"/>
<path d="M12.9697 13.7806C12.6768 13.4877 12.6768 13.0128 12.9697 12.7199L15.6893 10.0002L12.9697 7.28057C12.6768 6.98768 12.6768 6.51281 12.9697 6.21991C13.2626 5.92702 13.7374 5.92702 14.0303 6.21991L17.2803 9.46991C17.5732 9.76281 17.5732 10.2377 17.2803 10.5306L14.0303 13.7806C13.7374 14.0735 13.2626 14.0735 12.9697 13.7806Z" fill="#4A4A4A"/>
</svg>

<svg viewBox="0 0 20 20" xmlns="http://www.w3.org/2000/svg"><path d="M12.221 4.956a.75.75 0 0 0-1.442-.412l-3 10.5a.75.75 0 1 0 1.442.412l3-10.5Z" fill="#5C5F62"/><path d="M7.03 6.22a.75.75 0 0 1 0 1.06l-2.72 2.72 2.72 2.72a.75.75 0 0 1-1.06 1.06l-3.25-3.25a.75.75 0 0 1 0-1.06l3.25-3.25a.75.75 0 0 1 1.06 0Z" fill="#5C5F62"/><path d="M12.97 13.78a.75.75 0 0 1 0-1.06l2.72-2.72-2.72-2.72a.75.75 0 0 1 1.06-1.06l3.25 3.25a.75.75 0 0 1 0 1.06l-3.25 3.25a.75.75 0 0 1-1.06 0Z" fill="#5C5F62"/></svg>
